!!!OTL: 567. Rueckblick eines alten Burschen.
!!!ARE: Europa, Mitteleuropa, Deutschland
!!!SCT: B0567
!!!TXL: @@DE
!!!YEM: Copyright 1995, estate of Helmut Schaffrath.
**kern	**text
*ICvox	*
*Ivox	*
*clefG2	*
*M4/4	*
*met(c)	*
*k[]	*
*C:	*
!LO:TX:a:t=Kräftig.	!
{8eL	O
8fJ	.
=1	=1
4g	al-
4g	-te
8gL	Bur-
8aJ	.
8fL	-ſchen-
8dJ	.
=2	=2
4c	-herr-
4e	-lich-
4e	-keit,
8r}	.
{8e	wo-
=3	=3
4.d	-hin
8e	biſt
4f	du
4g	verſchwunden?
=4	=4
4f	.
4e	.
4r}	.
{4g	Nie
=5	=5
4.g	kehrſt
8e	du
4.cc	wie-
8b	-der,
=6	=6
4.b	gold-
8a	-ne
4a}	Ʒeit,
{4a	ſo
=7	=7
4.g	froh
8a	und
8gL	un-
8e	.
8fJ	.
8dL	-ge-
=8	=8
4d	-bun-
4c	-den!
4r}	.
{4e	Ver-
=9	=9
4d	-ge-
4g	-bens
4g	ſpä-
4b	-he
=10	=10
8bL	ich
8a	.
8ccJ	.
8bL	um-
4a}	-her,
{4d	ich
=11	=11
4d	fin-
4a	-de
4a	dei-
4cc	-ne
=12	=12
8ccL	Spur
8b	.
8ddJ	.
8cc	nicht
(8bL	mehr.
8a	.
8g)}J	.
!LO:TX:a:t=Refr.	!
{8f	O
=13	=13
4.g	jer-
8e	-um,
4.cc	je-
8b	-rum,
=14	=14
8bL	je-
8aJ	.
4a	-rum!
4r}	.
{4a	O
=15	=15
4.g	quae
8a	mu-
8gL	-ta-
8e	.
8fJ	.
8d	-tio
=16	=16
4d	re-
4c	-rum!
4r}	.
==	==
!!!AGN: Studenten -, Burschenschafts - Lied
!!!GTL: Studentenlieder
!!!ONB: ESAC (Essen Associative Code) Database: BOEHME
!!!AMT: simple quadruple
!!!AIN: vox
!!!EED: Helmut Schaffrath
!!!EEV: 1.0
!!Mel. ʒuerſt 1843 in Brauns Liederb. für Studenten.
!!@@COMMENT:"Dieſes Gedicht, ohne Angabe eines Verfaſſers, ſteht ʒuerſt in der Berliner Ʒeitſchrift: Der
!!Freimüthige oder Unterhaltungsblatt für gebildete, unbefangene Leſer". Herausgeber Dr. Aug.
!!Kühn. Nummer vom 9. Aug. 1825; dort mit der Ueberſchrift: Rückblicke eines alten Burſchen r.
!!faſt genau in derſelben Form, wie es heute geſungen wird, nur das »0 quae mutatio rerume
!!fehlt. So berichtet Dr. Wilh. Erman, K. Bibliotheker in Berlin in Nr. 8 der Burſchenſchaftl.
!!Blätter 1890. [...]"
!!@@END:
!!!URL-scan: https://archive.org/details/BoehmeVtLieder1895/page/n451/mode/2up
!!!ENC: Anna Maria Matuszewska
!!!EEV: 2024/12/07
*-	*-
